svgs/light/book-open-cover.svg

<svg xmlns="http://www.w3.org/2000/svg" viewBox="0 0 640 512"><!--! Font Awesome Pro 6.3.0 by @fontawesome - https://fontawesome.com License - https://fontawesome.com/license (Commercial License) Copyright 2023 Fonticons, Inc. --><path d="M89.06 398.1l217.1 48.4C310.7 447.5 315.3 448 320 448s9.312-.5098 13.88-1.529l217.1-48.4C565.6 394.8 576 381.8 576 366.7V39.47c0-22.15-17.99-39.46-39.31-39.46C536.2 .0127 535.9 0 535.6 0C532.7 0 522.6 1.673 320 33.13C117.1 1.63 107.4 .002 104.4 .002c-.3574 0-.6172 .0107-1.105 .0107C81.99 .0107 64 17.32 64 39.47V366.7C64 381.8 74.42 394.8 89.06 398.1zM336 63.1c0 0 195.4-30.39 200.6-31.07C540.1 32.03 544 34.91 544 39.56l-.0234 327.3L336 413.2V63.1zM96 39.56c0-2.623 1.203-4.367 2.211-5.369c.7383-.7344 2.248-1.922 5.264-2.148C108.8 32.74 304 63.1 304 63.1v350.1L96 366.7V39.56zM624 32C615.2 32 608 39.16 608 48v335.6c0 22.88-16.3 42.69-38.73 47.09L320 479.7l-249.3-48.97C48.3 426.3 32 406.5 32 383.6V48C32 39.16 24.84 32 16 32S0 39.16 0 48v335.6c0 38.13 27.16 71.14 64.58 78.5l252.3 49.58C317.9 511.9 318.1 512 320 512s2.062-.0938 3.078-.2969l252.4-49.58C612.8 454.8 640 421.8 640 383.6V48C640 39.16 632.8 32 624 32z"/></svg>

<svg xmlns="http://www.w3.org/2000/svg" viewBox="0 0 640 512"><!-- Font Awesome Pro 6.0.0-alpha2 by @fontawesome - https://fontawesome.com License - https://fontawesome.com/license (Commercial License) --><path d="M89.059 398.07L306.117 446.471C310.689 447.49 315.344 448 320 448S329.312 447.49 333.883 446.471L550.941 398.07C565.582 394.805 576 381.773 576 366.725V39.557C576 17.408 558.01 0.027 536.693 0.027C536.191 0.027 535.938 0 535.574 0C532.654 0 522.584 1.744 320 33.205C117.129 1.701 107.375 0.002 104.412 0.002C104.055 0.002 103.795 0.027 103.307 0.027C81.988 0.025 64 17.406 64 39.557V366.725C64 381.773 74.418 394.805 89.059 398.07ZM336 63.102L454.305 44.707C510.035 36.033 531.404 32.707 536.613 32.027H536.693C540.207 32.027 544 34.906 544 39.557L543.977 366.838L336 413.213V63.102ZM96 39.557C96 36.934 97.203 35.189 98.211 34.188C98.949 33.453 100.459 32.266 103.475 32.039C108.803 32.74 130.234 36.074 185.742 44.715L304 63.102V413.209L96 366.725V39.557ZM624 32C615.156 32 608 39.156 608 48V383.625C608 406.5 591.703 426.312 569.266 430.719L320 479.688L70.75 430.719C48.297 426.312 32 406.5 32 383.625V48C32 39.156 24.844 32 16 32S0 39.156 0 48V383.625C0 421.75 27.156 454.766 64.578 462.125L316.922 511.703C317.938 511.906 318.969 512 320 512S322.062 511.906 323.078 511.703L575.438 462.125C612.844 454.766 640 421.75 640 383.625V48C640 39.156 632.844 32 624 32Z"/></svg>
